X: 42
T:Inisheer
R:
D:Buttons and Bo
Z:added by Alf 
M:3/4
L:1/8
K:G
D2|B3A Bd|B3A Bd|E3B AB|D4 D2|B3A Bd|B3A Bd|G3B (3AGF|G4:|
(3Bcd|e3f ed|B3A Bd|ef ed (3Bcd|e4 Bd|e3f ed|B3A Bd|D3B (3AGF|G3A Bd|
e3f ed|B3A Bd|gf ed Bd|e4 (3Bcd|e3f ed|B3A Bd|D3B (3AGF|G4 |]
